CloudBeaver/cloudbeaver.svg

<svg width="41" height="25" viewBox="0 0 41 25" fill="none" xmlns="http://www.w3.org/2000/svg">
<g clip-path="url(#clip0_5869_1451)">
<path d="M6.40246 25.0001C5.18502 24.8992 1.38281 21.2645 1.38281 16.6752C1.38281 12.0858 5.17406 8.35023 9.83177 8.35023C9.89026 8.35023 9.94876 8.35023 10.0109 8.35023L10.5959 8.36104L10.8335 7.8351C12.6249 3.89058 16.6173 1.34375 21.0008 1.34375C27.1391 1.34375 32.1369 6.2645 32.1369 12.3164V12.338L32.1332 13.2926L33.0984 13.2097C33.2775 13.1953 33.453 13.1881 33.6248 13.1881C36.9298 13.1881 39.617 15.8358 39.617 19.0923C39.617 22.3488 36.4802 24.9569 33.1752 24.9569L6.40612 24.9965L6.40246 25.0001Z" fill="white"/>
<path d="M33.5792 12.2334C33.5792 5.69524 27.6785 0 21.0429 0C16.1549 0 11.7933 2.91066 9.91413 7.04251C9.84832 7.04251 9.91413 7.04251 9.84832 7.04251C4.69706 7.0389 0.5 11.5958 0.5 16.6751C0.5 20.2882 2.0282 23.1016 5.10653 24.6037C5.59643 24.0994 6.81386 24.0922 7.44269 23.75C6.33859 23.3898 5.44288 22.6477 4.48135 21.9452C1.18367 19.5245 1.67722 13.6203 3.84156 11.6282C7.30742 8.4366 11.1608 9.24712 11.1608 9.24712L11.6397 8.19524C12.4368 6.44092 14.0454 1.34726 21.3793 1.43732C29.1372 1.53098 31.2504 9.61455 31.2504 12.3091C31.2504 12.3199 31.2504 12.3307 31.2504 12.3415V14.2435L33.1698 14.0778C33.3233 14.0634 33.4732 14.0598 33.6195 14.0598C36.4382 14.0598 39.3155 16.2212 39.3155 18.995C39.3155 21.7687 36.4382 23.2169 33.6195 23.2169H17.6904C17.8732 23.3069 19.7085 24.9568 22.732 24.9568H33.6195C37.418 24.9568 40.4963 22.835 40.4963 19.0922C40.4963 15.3494 37.3778 12.2334 33.5792 12.2334Z" fill="#4598D3"/>
<path d="M26.1441 22.2193C27.2519 20.4794 28.0196 18.8223 28.7691 16.0341C30.1145 11.0377 26.0271 4.97503 22.3492 5.19838C16.5033 5.55861 13.4359 10.2416 12.3062 15.2884C11.0778 18.354 10.0798 20.9368 9.30469 23.127L26.1441 22.2157V22.2193Z" fill="white"/>
<path d="M28.4834 8.49095C27.7595 8.22438 25.8949 8.40449 24.5824 8.90881C23.939 9.15737 23.4308 9.48158 23.2553 9.86703C22.7764 10.9333 25.7195 12.7813 26.904 12.4427C27.4707 12.2806 28.2823 11.0954 28.6442 10.058C28.9002 9.31948 28.9331 8.65665 28.4834 8.49095Z" fill="#4598D3"/>
<path d="M21.8974 9.36647C21.561 9.32324 20.8664 9.23318 20.6434 8.98462C20.1461 8.42987 19.3528 8.28217 18.7752 8.40825C18.161 8.54154 17.8356 9.24399 18.256 10.1157C18.4461 10.5084 18.3986 10.9839 18.2048 11.3369C18.8081 10.7858 19.3711 10.3319 19.7879 10.1157C20.6105 9.69068 21.3417 9.46733 21.8974 9.36647Z" fill="#4598D3"/>
<path d="M18.2734 15.2703C18.3137 15.4648 18.3612 15.645 18.4087 15.8215C18.3795 15.789 18.3612 15.771 18.3612 15.771C18.3612 15.771 18.4014 15.8575 18.4599 16.0088C18.544 16.2862 18.6317 16.5383 18.7304 16.7761C19.0522 17.7955 19.3958 19.3625 18.884 20.346C18.5001 21.0808 13.6304 23.4836 21.955 24.9245L29.4278 23.2206C26.1374 22.7811 27.4573 21.088 28.2433 19.6939C29.1829 18.0225 29.5046 16.9562 29.7093 15.418C29.83 14.4958 29.7422 13.8042 29.7166 13.6385C29.713 13.6133 29.7093 13.5988 29.7093 13.5988C29.7093 13.5988 29.7093 13.6493 29.6947 13.7393L29.7093 13.5088C29.7093 13.5088 29.1134 15.8611 27.9435 16.704C27.6693 16.8986 27.4975 17.0318 27.3841 17.1183C27.5011 16.6788 27.9435 14.8308 27.311 13.8186C27.311 13.8186 27.0478 18.0729 24.7482 18.2999C22.4449 18.5268 19.2021 16.2033 18.2734 15.2739V15.2703ZM27.9106 17.4713C27.9106 17.4713 27.311 19.485 26.8906 20.4C26.5213 21.2069 26.4043 21.1457 26.1338 21.2393C26.2362 20.9872 26.3056 20.6594 26.4409 20.1046C26.5981 19.4382 26.4409 19.2617 26.4409 19.2617C26.2325 20.2595 25.9071 20.9764 25.6329 21.4447C25.2746 21.5635 24.8359 21.6392 24.5178 21.5131C24.0682 21.3366 23.9914 19.2473 23.9914 19.132C25.951 19.2653 26.9966 18.48 27.9142 17.4749L27.9106 17.4713Z" fill="#4598D3"/>
<path d="M11.6493 15.1298C11.5579 15.6377 11.5176 16.0988 11.5323 16.5022C11.0862 17.2011 7.85435 24.7659 3.84375 21.369C4.53107 21.9633 5.10872 24.6074 5.10872 24.6074C8.88168 26.7796 11.4957 18.2602 11.7918 17.6982C12.0368 18.2097 12.4463 19.2508 14.7276 19.2976C14.7276 19.2976 12.0514 18.0044 13.2469 14.575C14.4424 11.1456 16.2083 8.23496 18.6322 6.88769C21.0561 5.54043 23.5056 5.63409 25.7577 6.5815C25.7577 6.5815 22.3576 3.50153 18.4494 5.82862C16.2046 7.16507 14.7093 8.64922 13.682 10.173C12.8192 10.3243 11.7699 10.1874 11.3458 10.1874C10.8084 10.1874 9.97847 10.5476 10.355 11.8481C10.7206 13.1197 11.737 14.4093 11.6529 15.1334L11.6493 15.1298Z" fill="#4598D3"/>
</g>
<defs>
<clipPath id="clip0_5869_1451">
<rect width="40" height="25" fill="white" transform="translate(0.5)"/>
</clipPath>
</defs>
</svg>

<svg fill="none" viewBox="0 0 41 25" xmlns="http://www.w3.org/2000/svg"><g clip-path="url(#a)"><path fill="#fff" d="M6.402 25c-1.217-.1-5.02-3.735-5.02-8.325S5.175 8.35 9.833 8.35h.179l.585.011.238-.526C12.624 3.891 16.617 1.344 21 1.344c6.138 0 11.136 4.92 11.136 10.972v.022l-.004.955.965-.083q.27-.022.527-.022c3.305 0 5.992 2.648 5.992 5.904 0 3.257-3.137 5.865-6.442 5.865l-26.769.04z"/><path fill="#4598D3" d="M33.58 12.233C33.58 5.695 27.678 0 21.042 0c-4.888 0-9.25 2.91-11.129 7.043h-.066C4.698 7.039.5 11.596.5 16.675c0 3.613 1.528 6.427 4.607 7.929.49-.505 1.707-.512 2.336-.854-1.104-.36-2-1.102-2.962-1.805-3.297-2.42-2.804-8.325-.64-10.317 3.466-3.191 7.32-2.38 7.32-2.38l.479-1.053c.797-1.754 2.405-6.848 9.74-6.758 7.757.094 9.87 8.178 9.87 10.872v1.934l1.92-.165a5 5 0 0 1 .45-.018c2.818 0 5.696 2.161 5.696 4.935s-2.878 4.222-5.696 4.222H17.69c.183.09 2.018 1.74 5.042 1.74H33.62c3.798 0 6.876-2.122 6.876-5.865s-3.118-6.859-6.917-6.859"/><path fill="#fff" d="M26.144 22.22c1.108-1.74 1.876-3.398 2.625-6.186 1.346-4.996-2.742-11.059-6.42-10.836-5.846.36-8.913 5.044-10.043 10.09-1.228 3.066-2.226 5.649-3.001 7.839l16.84-.911z"/><path fill="#4598D3" d="M28.483 8.49c-.724-.266-2.588-.086-3.9.419-.644.248-1.152.573-1.328.958-.479 1.066 2.465 2.914 3.649 2.576.567-.162 1.378-1.348 1.74-2.385.256-.739.29-1.401-.16-1.567m-6.587.875c-.336-.043-1.03-.133-1.254-.381-.497-.555-1.29-.703-1.868-.577-.614.134-.94.836-.519 1.708.19.392.143.868-.051 1.22.603-.55 1.166-1.004 1.583-1.22.822-.425 1.554-.649 2.11-.75m-3.625 5.904c.04.195.088.375.136.552l-.048-.051s.04.086.099.238q.125.414.27.767c.322 1.02.666 2.587.154 3.57-.384.735-5.254 3.138 3.071 4.578l7.473-1.703c-3.29-.44-1.97-2.133-1.185-3.527.94-1.671 1.262-2.738 1.466-4.276a6.7 6.7 0 0 0 .008-1.78l-.008-.04s0 .051-.014.141l.014-.23s-.596 2.352-1.765 3.195c-.275.195-.447.328-.56.414.117-.44.56-2.287-.073-3.3 0 0-.263 4.255-2.563 4.482-2.303.227-5.546-2.097-6.475-3.026zm9.638 2.201s-.6 2.014-1.02 2.929c-.37.807-.487.746-.757.84.102-.253.172-.58.307-1.135.157-.667 0-.843 0-.843-.208.997-.534 1.714-.808 2.183-.358.119-.797.194-1.115.068-.45-.176-.527-2.266-.527-2.381 1.96.133 3.006-.652 3.923-1.657z"/><path fill="#4598D3" d="M11.65 15.13a6.5 6.5 0 0 0-.118 1.372c-.446.7-3.678 8.264-7.688 4.867.687.594 1.265 3.238 1.265 3.238 3.773 2.173 6.387-6.347 6.683-6.909.245.512.654 1.553 2.936 1.6 0 0-2.677-1.294-1.481-4.723 1.195-3.43 2.961-6.34 5.385-7.687s4.874-1.254 7.126-.306c0 0-3.4-3.08-7.309-.753-2.244 1.336-3.74 2.82-4.767 4.344-.863.151-1.912.014-2.336.014-.538 0-1.368.36-.991 1.661.366 1.272 1.382 2.561 1.298 3.285z"/></g><defs><clipPath id="a"><path fill="#fff" d="M.5 0h40v25H.5z"/></clipPath></defs></svg>
